X:79
T:Ally Croaker THO1.079
M:2/4
L:1/8
Z:vmp. Peter Dunk 2012.from a transcription by Fynn Titford-Mock 2006
B:Thompson's Compleat Collection of 200 Favourite Country Dances Vol.I,1758
Q:1/4=140
K:G
D|G2 G>G|GGGG|AGFG|ABcd|BGGG|GGGG|A>GFG|A>Bcc|
{Bc}d2 dd|dddd|edcB|A>Bcc|{AB}c2 cc|cccc|dcBA|G>ABB|
GGGG|FFFG/F/|EEEF/E/|DD D2|c>ccd|{d}c2 BA|BGcA|G2G2|]

